assets/checkpoint-castle-complete.svg

<?xml version="1.0" encoding="UTF-8" standalone="no"?>
<svg
   xmlns:dc="http://purl.org/dc/elements/1.1/"
   xmlns:cc="http://creativecommons.org/ns#"
   xmlns:rdf="http://www.w3.org/1999/02/22-rdf-syntax-ns#"
   xmlns:svg="http://www.w3.org/2000/svg"
   xmlns="http://www.w3.org/2000/svg"
   xmlns:sodipodi="http://sodipodi.sourceforge.net/DTD/sodipodi-0.dtd"
   xmlns:inkscape="http://www.inkscape.org/namespaces/inkscape"
   width="98"
   height="162"
   viewBox="0 0 98 162"
   version="1.1"
   id="svg26"
   sodipodi:docname="checkpoint-castle-complete.svg"
   inkscape:version="1.0 (4035a4fb49, 2020-05-01)">
  <metadata
     id="metadata32">
    <rdf:RDF>
      <cc:Work
         rdf:about="">
        <dc:format>image/svg+xml</dc:format>
        <dc:type
           rdf:resource="http://purl.org/dc/dcmitype/StillImage" />
      </cc:Work>
    </rdf:RDF>
  </metadata>
  <defs
     id="defs30" />
  <sodipodi:namedview
     inkscape:document-rotation="0"
     pagecolor="#ffffff"
     bordercolor="#666666"
     borderopacity="1"
     objecttolerance="10"
     gridtolerance="10"
     guidetolerance="10"
     inkscape:pageopacity="0"
     inkscape:pageshadow="2"
     inkscape:window-width="753"
     inkscape:window-height="729"
     id="namedview28"
     showgrid="false"
     inkscape:zoom="1.5802469"
     inkscape:cx="27.382987"
     inkscape:cy="95.187405"
     inkscape:window-x="-7"
     inkscape:window-y="0"
     inkscape:window-maximized="0"
     inkscape:current-layer="svg26" />
  <g
     id="g858">
    <g
       id="g898">
      <path
         style="fill:#a36308;fill-opacity:1;fill-rule:nonzero"
         fill="#cd7900"
         d="m 42.556,14.4 c 2.5,0 4.527,2.027 4.527,4.527 V 71.224 A 2.576,2.576 0 0 1 44.508,73.8 H 40.605 A 2.576,2.576 0 0 1 38.029,71.224 V 18.927 c 0,-2.5 2.027,-4.527 4.527,-4.527 z"
         id="path2" />
      <path
         style="fill:#e6b400;fill-opacity:1;fill-rule:nonzero"
         fill="#ffd300"
         d="m 43.78,1.152 4.154,4.129 a 1.585,1.585 0 0 1 0,2.249 l -4.154,4.128 a 1.585,1.585 0 0 1 -2.235,0 L 37.391,7.53 a 1.585,1.585 0 0 1 0,-2.249 l 4.154,-4.129 a 1.585,1.585 0 0 1 2.235,0 z"
         id="path4" />
      <g
         id="g885">
        <rect
           id="rect6"
           rx="3.171"
           fill="#1899d6"
           y="18.200001"
           x="49.498001"
           height="30.200001"
           width="26.158001"
           style="fill-rule:nonzero" />
        <path
           d="m 70.376953,18.199219 c -1.756734,0 -3.171875,1.415141 -3.171875,3.171875 v 3.599609 20.257813 3.601562 A 3.17,3.17 0 0 0 70.375,52 h 24.242188 a 3.17,3.17 0 0 0 3.169921,-3.169922 V 24.970703 A 3.17,3.17 0 0 0 94.617188,21.800781 H 75.65625 v -0.429687 c 0,-1.756734 -1.415141,-3.171875 -3.171875,-3.171875 z"
           style="fill:#1cb0f6;fill-opacity:1;fill-rule:nonzero"
           id="path8" />
      </g>
    </g>
    <g
       id="g847">
      <path
         style="fill:#e6b400;fill-opacity:1;fill-rule:evenodd"
         fill="#ffc800"
         d="m 78.733,136.666 a 5.949,5.949 0 0 1 5.567,5.936 v 12.551 a 5.949,5.949 0 0 1 -5.95,5.949 H 7.137 a 5.949,5.949 0 0 1 -5.949,-5.949 v -12.55 a 5.95,5.95 0 0 1 5.786,-5.947 L 10.397,92.473 H 5.95 A 5.949,5.949 0 0 1 0,86.524 V 70.75 A 5.949,5.949 0 0 1 5.949,64.8 h 11.849 a 5.949,5.949 0 0 1 5.948,5.949 v 4.013 H 30.87 V 70.75 a 5.949,5.949 0 0 1 5.95,-5.95 h 11.849 a 5.949,5.949 0 0 1 5.949,5.949 v 4.013 h 7.124 V 70.75 a 5.949,5.949 0 0 1 5.947,-5.95 h 11.85 a 5.949,5.949 0 0 1 5.948,5.949 v 15.775 a 5.949,5.949 0 0 1 -5.949,5.949 h -3.51 z"
         id="path14" />
      <path
         id="path16"
         style="fill-rule:evenodd;fill:#efc927;fill-opacity:1"
         d="M 13.554688 69.234375 C 12.459688 69.234375 11.570312 70.120797 11.570312 71.216797 L 11.570312 87.197266 A 1.983 1.983 0 0 0 13.554688 89.181641 L 17.900391 89.181641 A 1.983 1.983 0 0 0 18.509766 89.083984 A 1.983 1.983 0 0 0 19.019531 89.152344 L 42.232422 89.152344 A 1.983 1.983 0 0 0 44.216797 87.169922 L 44.216797 78.958984 C 44.216797 78.773146 44.182548 78.596366 44.134766 78.425781 L 44.134766 71.216797 C 44.134766 70.118215 43.248973 69.234375 42.150391 69.234375 L 37.806641 69.234375 C 36.708059 69.234375 35.822266 70.118215 35.822266 71.216797 L 35.822266 76.976562 L 19.882812 76.976562 L 19.882812 71.216797 C 19.882812 70.120797 18.995391 69.234375 17.900391 69.234375 L 13.554688 69.234375 z M 22.503906 94.085938 A 1.983 1.983 0 0 0 20.527344 95.912109 L 17.554688 133.40625 A 1.983 1.983 0 0 0 19.53125 135.54688 L 42.255859 135.54688 A 1.983 1.983 0 0 0 44.238281 133.56445 L 44.238281 96.068359 C 44.238281 94.973359 43.350859 94.085938 42.255859 94.085938 L 22.503906 94.085938 z M 14.087891 140.80078 C 12.992891 140.80078 12.103516 141.68625 12.103516 142.78125 L 12.103516 153.38477 A 1.983 1.983 0 0 0 14.087891 155.36719 L 42.232422 155.36719 A 1.983 1.983 0 0 0 44.216797 153.38477 L 44.216797 142.78125 C 44.216797 141.68625 43.328422 140.80078 42.232422 140.80078 L 14.087891 140.80078 z " />
    </g>
  </g>
</svg>

<?xml version="1.0" encoding="UTF-8" standalone="no"?>
<svg
   xmlns:dc="http://purl.org/dc/elements/1.1/"
   xmlns:cc="http://creativecommons.org/ns#"
   xmlns:rdf="http://www.w3.org/1999/02/22-rdf-syntax-ns#"
   xmlns:svg="http://www.w3.org/2000/svg"
   xmlns="http://www.w3.org/2000/svg"
   xmlns:sodipodi="http://sodipodi.sourceforge.net/DTD/sodipodi-0.dtd"
   xmlns:inkscape="http://www.inkscape.org/namespaces/inkscape"
   inkscape:version="1.0 (4035a4fb49, 2020-05-01)"
   sodipodi:docname="checkpoint-castle-complete.svg"
   id="svg26"
   version="1.1"
   viewBox="0 0 98 162"
   height="162"
   width="98">
  <metadata
     id="metadata32">
    <rdf:RDF>
      <cc:Work
         rdf:about="">
        <dc:format>image/svg+xml</dc:format>
        <dc:type
           rdf:resource="http://purl.org/dc/dcmitype/StillImage" />
      </cc:Work>
    </rdf:RDF>
  </metadata>
  <defs
     id="defs30" />
  <sodipodi:namedview
     inkscape:current-layer="svg26"
     inkscape:window-maximized="1"
     inkscape:window-y="-8"
     inkscape:window-x="-8"
     inkscape:cy="81"
     inkscape:cx="49"
     inkscape:zoom="3.1604938"
     showgrid="false"
     id="namedview28"
     inkscape:window-height="745"
     inkscape:window-width="1366"
     inkscape:pageshadow="2"
     inkscape:pageopacity="0"
     guidetolerance="10"
     gridtolerance="10"
     objecttolerance="10"
     borderopacity="1"
     bordercolor="#666666"
     pagecolor="#ffffff" />
  <g
     id="g907">
    <g
       id="g898">
      <path
         id="path2"
         d="m 42.556,14.4 c 2.5,0 4.527,2.027 4.527,4.527 V 71.224 A 2.576,2.576 0 0 1 44.508,73.8 H 40.605 A 2.576,2.576 0 0 1 38.029,71.224 V 18.927 c 0,-2.5 2.027,-4.527 4.527,-4.527 z"
         fill="#cd7900"
         style="fill:#a36308;fill-opacity:1;fill-rule:nonzero" />
      <path
         id="path4"
         d="m 43.78,1.152 4.154,4.129 a 1.585,1.585 0 0 1 0,2.249 l -4.154,4.128 a 1.585,1.585 0 0 1 -2.235,0 L 37.391,7.53 a 1.585,1.585 0 0 1 0,-2.249 l 4.154,-4.129 a 1.585,1.585 0 0 1 2.235,0 z"
         fill="#ffd300"
         style="fill:#e6b400;fill-opacity:1;fill-rule:nonzero" />
      <g
         id="g885">
        <rect
           style="fill-rule:nonzero"
           width="26.158001"
           height="30.200001"
           x="49.498001"
           y="18.200001"
           fill="#1899d6"
           rx="3.171"
           id="rect6" />
        <path
           id="path8"
           style="fill-rule:nonzero;fill:#1cb0f6;fill-opacity:1"
           d="M 70.376953 18.199219 C 68.620219 18.199219 67.205078 19.61436 67.205078 21.371094 L 67.205078 24.970703 L 67.205078 45.228516 L 67.205078 48.830078 A 3.17 3.17 0 0 0 70.375 52 L 94.617188 52 A 3.17 3.17 0 0 0 97.787109 48.830078 L 97.787109 24.970703 A 3.17 3.17 0 0 0 94.617188 21.800781 L 75.65625 21.800781 L 75.65625 21.371094 C 75.65625 19.61436 74.241109 18.199219 72.484375 18.199219 L 70.376953 18.199219 z " />
      </g>
    </g>
    <path
       style="fill-rule:evenodd;fill:#e6b400;fill-opacity:1"
       fill="#ffc800"
       d="m 78.733,136.666 a 5.949,5.949 0 0 1 5.567,5.936 v 12.551 a 5.949,5.949 0 0 1 -5.95,5.949 H 7.137 a 5.949,5.949 0 0 1 -5.949,-5.949 v -12.55 a 5.95,5.95 0 0 1 5.786,-5.947 L 10.397,92.473 H 5.95 A 5.949,5.949 0 0 1 0,86.524 V 70.75 A 5.949,5.949 0 0 1 5.949,64.8 h 11.849 a 5.949,5.949 0 0 1 5.948,5.949 v 4.013 H 30.87 V 70.75 a 5.949,5.949 0 0 1 5.95,-5.95 h 11.849 a 5.949,5.949 0 0 1 5.949,5.949 v 4.013 h 7.124 V 70.75 a 5.949,5.949 0 0 1 5.947,-5.95 h 11.85 a 5.949,5.949 0 0 1 5.948,5.949 v 15.775 a 5.949,5.949 0 0 1 -5.949,5.949 h -3.51 z"
       id="path14" />
  </g>
  <path
     d="M 13.554688 69.234375 C 12.459688 69.234375 11.570312 70.120797 11.570312 71.216797 L 11.570312 87.197266 A 1.983 1.983 0 0 0 13.554688 89.181641 L 17.900391 89.181641 A 1.983 1.983 0 0 0 18.509766 89.083984 A 1.983 1.983 0 0 0 19.019531 89.152344 L 42.232422 89.152344 A 1.983 1.983 0 0 0 44.216797 87.169922 L 44.216797 78.958984 C 44.216797 78.773146 44.182548 78.596366 44.134766 78.425781 L 44.134766 71.216797 C 44.134766 70.118215 43.248973 69.234375 42.150391 69.234375 L 37.806641 69.234375 C 36.708059 69.234375 35.822266 70.118215 35.822266 71.216797 L 35.822266 76.976562 L 19.882812 76.976562 L 19.882812 71.216797 C 19.882812 70.120797 18.995391 69.234375 17.900391 69.234375 L 13.554688 69.234375 z M 22.503906 94.085938 A 1.983 1.983 0 0 0 20.527344 95.912109 L 17.554688 133.40625 A 1.983 1.983 0 0 0 19.53125 135.54688 L 42.255859 135.54688 A 1.983 1.983 0 0 0 44.238281 133.56445 L 44.238281 96.068359 C 44.238281 94.973359 43.350859 94.085938 42.255859 94.085938 L 22.503906 94.085938 z M 14.087891 140.80078 C 12.992891 140.80078 12.103516 141.68625 12.103516 142.78125 L 12.103516 153.38477 A 1.983 1.983 0 0 0 14.087891 155.36719 L 42.232422 155.36719 A 1.983 1.983 0 0 0 44.216797 153.38477 L 44.216797 142.78125 C 44.216797 141.68625 43.328422 140.80078 42.232422 140.80078 L 14.087891 140.80078 z "
     style="fill-rule:evenodd;fill:#efc927;fill-opacity:1"
     id="path16" />
</svg>
